X: 14031
T: Roselana Castle
T: Rosland Castle
%R: air, march, reel + jig
B: James Oswald "The Caledonian Pocket Companion" v.1 b.4 p.3 (top 2 staffs continued from p.2)
S: https://ia800501.us.archive.org/18/items/caledonianpocket01rugg/caledonianpocket01rugg_bw.pdf
Z: 2020 John Chambers <jc:trillian.mit.edu>
N: In the jig ("Brisk") part, the repeat symbols don't mak sense; all double bars transcribed as repeats.
N: Dots added to a few strains' final notes to fix the rhythm.
M: C
L: 1/8
K: Em
%%slurgraces 1
%%graceslurs 1
%%continueall
"^A"|: "^Slow"(GF) |\
E2B>c B2(AB) | ({AB}cB)(TAG) TF2(G>F) |\
E2e>f {ef}g2(fe) | (^de)(fd) B2(AB) |\
({d}cB)(TAG) F2(GA) | (BG)(FE) T^d2(ef) |\
(ge)(f^d) (ec)(BA) |
G2(TF>E) E2 "^B":: B2 |\
e2(ef) {ef}g2(fe) | b2(ag) Tf2(e^d) |\
eBef {ef}g2(fe) | b>a (g/b/a/g/) f2AB |\
({AB}cB)(AG) F2(GA) | (BG)(FE) ^d2(ef) |
gef^d eBAB | {A}G2F>E D2 "^C":: (GF) |\
(EG) (Bg) {e}^d2eB | c(B/A/) Bc F2(GF) |\
(EG)(GB) .B(efg) | ag/f/ {a}gf/e/ b2(AB) |
(c//B//A3/) (B//A//G3/) F2(GA) | (Bc/B/ A/G/F/)E/ T^d2(ef) |\
(gb)(^df) eB {d}c(B/A/) | G2TF>E D2 "^D":: B2 |\
ee/g/ ff/a/ {a}g3f | (e/g/f/e/) (b/g/f/e/) (gf)(e^d) |
.e/(B/A/B/) f/(B/A/B/) g(f/g/) ef | g(f/g/) (a/f/g/e/) b4 |\
B2AG F2G/B/A/c/ | BA/G/ FE ^d2ef |\
(g/b/a/f/) (g/e/f/^d/) (e/g/f/^d/) (e/B/c/A/) | G2TF>E E2 :|
M: 6/8
"^E"|: "_Brisk"\
B2e (ed)B | (df)e (dB)A | B2e (fe)d | (Bd)F E3 "^F"::\
F2E (DE)F | B2A (Bf)e | d2F (EF)A | (BA)F E3 "^G"::\
B2e ede | f2d (ed)e | f2d (ed)B | (Ad)F E3 "^H"::\
F2d D2d | E2e F2f | (gf)e (dB)A | (B/^c/d)F E3 :|
